src/assets/svgs/refactor/story-eth.svg

<svg fill="none" height="34" viewBox="0 0 23 34" width="23" xmlns="http://www.w3.org/2000/svg"><path clip-rule="evenodd" d="m12.508.533613c-.2283-.334111-.6053-.53367066-1.008-.53361299-.4028.0000577-.7797.19972499-1.008.53390199l-10.260453 15.025098c-.077191.1077-.1358593.2265-.1748276.3512-.0202488.0647-.0351271.1309-.0445339.1978-.0345836.2454.0038193.5024.1232335.7357.01806.0354.037758.0698.059001.103l10.26948 16.4762c.2238.3591.6153.577 1.0363.577s.8124-.2179 1.0362-.577l10.2766-16.4875c.132-.2118.1921-.4484.187-.6809-.0031-.2411-.0766-.4791-.2157-.6825l-3.3571-4.9079c-.3832-.5603-1.145-.70165-1.7015-.3157-.5564.3859-.6968 1.153-.3135 1.7133l2.4542 3.5879-8.3667 2.9995-8.36544-2.9924 8.36614-12.25109 2.8774 4.21092c.383.5605 1.1447.70224 1.7013.3166.5567-.38565.6974-1.15264.3144-1.71314zm6.3666 18.085687-6.9641 2.4977c-.2652.0951-.5547.0952-.8199.0003l-6.95952-2.4894 7.36912 11.8228z" fill="#101010" fill-rule="evenodd"/></svg>

<svg width="23" height="34" viewBox="0 0 23 34" fill="none" xmlns="http://www.w3.org/2000/svg">
<path id="Eth" fill-rule="evenodd" clip-rule="evenodd" d="M12.508 0.533613C12.2797 0.199502 11.9027 -5.76585e-05 11.5 1.24964e-08C11.0972 5.77085e-05 10.7203 0.199725 10.492 0.533902L0.231547 15.559C0.154356 15.6667 0.0956877 15.7855 0.0567194 15.9102C0.0364706 15.9749 0.0215923 16.0411 0.0121855 16.108C-0.0223981 16.3534 0.0160048 16.6104 0.135419 16.8437C0.153479 16.8791 0.173177 16.9135 0.19442 16.9467L10.4639 33.4229C10.6877 33.782 11.0792 33.9999 11.5002 33.9999C11.9212 33.9999 12.3126 33.782 12.5364 33.4229L22.813 16.9354C22.945 16.7236 23.0051 16.487 23 16.2545C22.9969 16.0134 22.9234 15.7754 22.7843 15.572L19.4272 10.6641C19.044 10.1038 18.2822 9.96245 17.7257 10.3484C17.1693 10.7343 17.0289 11.5014 17.4122 12.0617L19.8664 15.6496L11.4997 18.6491L3.13426 15.6567L11.5004 3.40561L14.3778 7.61653C14.7608 8.17703 15.5225 8.31877 16.0791 7.93313C16.6358 7.54748 16.7765 6.78049 16.3935 6.21999L12.508 0.533613ZM18.8746 18.6193L11.9105 21.117C11.6453 21.2121 11.3558 21.2122 11.0906 21.1173L4.13108 18.6279L11.5002 30.4507L18.8746 18.6193Z" fill="#101010"/>
</svg>
